material/.icons/material/page-next-outline.svg

<svg xmlns="http://www.w3.org/2000/svg" viewBox="0 0 24 24"><path d="M22 3H5a2 2 0 00-2 2v4h2V5h17v14H5v-4H3v4a2 2 0 002 2h17a2 2 0 002-2V5a2 2 0 00-2-2M7 15v-2H0v-2h7V9l4 3-4 3m13-2h-7v-2h7v2m0-4h-7V7h7v2m-3 8h-4v-2h4v2z"/></svg>

<?xml version="1.0" encoding="UTF-8"?><!DOCTYPE svg PUBLIC "-//W3C//DTD SVG 1.1//EN" "http://www.w3.org/Graphics/SVG/1.1/DTD/svg11.dtd"><svg xmlns="http://www.w3.org/2000/svg" xmlns:xlink="http://www.w3.org/1999/xlink" version="1.1" id="mdi-page-next-outline" width="24" height="24" viewBox="0 0 24 24"><path d="M22,3H5A2,2 0 0,0 3,5V9H5V5H22V19H5V15H3V19A2,2 0 0,0 5,21H22A2,2 0 0,0 24,19V5A2,2 0 0,0 22,3M7,15V13H0V11H7V9L11,12L7,15M20,13H13V11H20V13M20,9H13V7H20V9M17,17H13V15H17V17Z" /></svg>
